X:569
M:C|
L:1/8
K:C
c|A/B/c d/c/B/A/ GEE>c|GcEc GEEc|A/B/c d/c/B/A/ GEEc|GEcE EDD:|
f|e/f/g g>f ecce|A/B/c Gc EcGc|e/f/g g>f ecce|d>B cE EDDf|e/f/g g>f ecce|

